X: 39133
T: Sweet Journeys
R: waltz
M: 3/4
K: Amajor
|:(3E/F/E/ DB,|A,3 C E2|A<c- c2 (3BcB|A3 F D2|E3 F ED|
C3 E A2|c<e- e2 e<f|e3 c A2|B3 ^A Bc|
d3 e fd|e2 .c2 A2|F3 E D2|E3 F ED|
CA- A2 A<c|B3 A G2|A6|A3:|
|:z e2|f3 e d2|f<a- a2 (3faf|e3 c A2|A<E- E2 E2|
F<d- d2 F2|E<c- c2 c<e|e3 d c2|B3 A Bc|
d3 e f2|g2 a2 a<b|(3aba e2 c2|f3 g a2|
e<c- c2- cc/<A/|F<d- d2 G2|A6|A3:|

